public/images/contact/linkedin.svg

<svg fill="none" height="41" viewBox="0 0 41 41" width="41" xmlns="http://www.w3.org/2000/svg"><path d="m37.75.625c1.5273 0 2.875 1.34766 2.875 2.96484v34.41016c0 1.6172-1.3477 2.875-2.875 2.875h-34.58984c-1.52735 0-2.78516-1.2578-2.78516-2.875v-34.41016c0-1.61718 1.25781-2.96484 2.78516-2.96484zm-25.2461 34.5v-19.1367h-5.92968v19.1367zm-2.96484-21.832c1.88674 0 3.41404-1.5274 3.41404-3.41409 0-1.88672-1.5273-3.50391-3.41404-3.50391-1.97656 0-3.5039 1.61719-3.5039 3.50391 0 1.88669 1.52734 3.41409 3.5039 3.41409zm25.33594 21.832v-10.5117c0-5.1211-1.168-9.1641-7.1875-9.1641-2.875 0-4.8516 1.6172-5.6602 3.1446h-.0898v-2.6055h-5.6602v19.1367h5.9297v-9.4336c0-2.5156.4492-4.9414 3.5938-4.9414 3.0547 0 3.0547 2.875 3.0547 5.0312v9.3438z" fill="#fff"/></svg>

<svg width="41" height="41" viewBox="0 0 41 41" fill="none" xmlns="http://www.w3.org/2000/svg">
<path d="M37.75 0.625C39.2773 0.625 40.625 1.97266 40.625 3.58984V38C40.625 39.6172 39.2773 40.875 37.75 40.875H3.16016C1.63281 40.875 0.375 39.6172 0.375 38V3.58984C0.375 1.97266 1.63281 0.625 3.16016 0.625H37.75ZM12.5039 35.125V15.9883H6.57422V35.125H12.5039ZM9.53906 13.293C11.4258 13.293 12.9531 11.7656 12.9531 9.87891C12.9531 7.99219 11.4258 6.375 9.53906 6.375C7.5625 6.375 6.03516 7.99219 6.03516 9.87891C6.03516 11.7656 7.5625 13.293 9.53906 13.293ZM34.875 35.125V24.6133C34.875 19.4922 33.707 15.4492 27.6875 15.4492C24.8125 15.4492 22.8359 17.0664 22.0273 18.5938H21.9375V15.9883H16.2773V35.125H22.207V25.6914C22.207 23.1758 22.6562 20.75 25.8008 20.75C28.8555 20.75 28.8555 23.625 28.8555 25.7812V35.125H34.875Z" fill="white"/>
</svg>
